X:1
T: Jenny's Bawbee
C:
R:Strathspey
Q: 128
K:D
M:4/4
L:1/16
f2|a3b a3g fd3 d3f|g3B e3d cA3 A4|a3b a3g fd3 d3f|BB3 c3A d6|
f2|a3b a3g fd3 d3f|g3B e3d cA3 A4|a3b a3g fd3 d3f|BB3 c3A d6|
|:de|f3d g3e fd3 d3e1/2f1/2|g3B e3d cA3 A3d1/2e1/2|f3d g3e fd3 fa3|BB3 c3A d6de|
f3d g3e fd3 d3e1/2f1/2|g3B e3d cA3 A3f|a3b a3g fd3 d3f|BB3 c3A d6:|
